images/junk-to-remove.svg

<svg height="193" viewBox="0 0 383 193" width="383" xmlns="http://www.w3.org/2000/svg"><g fill="none"><g fill="#000"><path d="m259.356222 21.4121617 31.346925 1.4655911.154273 3.2112024-31.346925-1.4655911z" transform="matrix(.60181502 .79863551 -.79863551 .60181502 128.511442 -210.252961)"/><path d="m247.509543 10.735127 31.256991-1.48819046-.343429 7.43632526-31.256991 1.4881905z" transform="matrix(.80901699 -.58778525 .58778525 .80901699 42.164037 157.18595)"/><path d="m243.128046 30.3686459 39.596116 1.851273.347114 7.2252053-39.596117-1.851273z" transform="matrix(.60181502 .79863551 -.79863551 .60181502 132.64021 -196.221335)"/><path d="m265.797627 36.277758 30.865522-1.2972581-.299367 7.5266643-30.865522 1.2972581z" transform="matrix(.88294759 -.46947156 .46947156 .88294759 14.407533 136.57038)"/><path d="m14.1111111 97.0212766 46.6666667-17.0212766 14 2.5531915 6.2222222 16.1702128-20.2222222 13.6170217c-9.7361814-.922096-16.4769221-.922096-20.2222222 0-3.7453002.922095-7.3749298 3.475286-10.8888889 7.659574h-25.6666667z"/></g><path d="m59.7539813 90.3637093 41.6543957-17.337908 50.549878-29.4160874 58.229243 8.8847645 41.532379 1.8434935 23.712635 52.1855581c-39.870086 14.992928-70.638896 23.294849-92.306428 24.905762-21.667532 1.610914-50.856877-3.720412-87.5680343-15.993978l-12.6974642-18.4140228z" fill="#060901" transform="matrix(.9781476 -.20791169 .20791169 .9781476 -14.563158 36.760169)"/><path d="m335.974075 92.17395 27.182358-6.0265962 4.015665 5.5270896 4.901498 13.3281366-38.216551-1.262506z" fill="#000" transform="matrix(.80901699 .58778525 -.58778525 .80901699 123.587934 -189.214615)"/><path d="m237 105.478632 66.433862-32.478632 34.761905 23.9316239 18.539683 14.5299141 26.26455 28.205129-11.587302 14.529914-30.89947 18.803419-75.703704-11.111111z" fill="#060901"/><path d="m172.21118 114c-10.777088 3.414634-8.126984 5.121951 7.950311 5.121951 16.077294 0 34.628019.853659 55.652174 2.560976l34.186335 43.536585-17.490683 5.97561-62.807454 12.804878-31.006211-9.390244v-17.073171h-16.695652z" fill="#060901"/><path d="m30.9494183 72.286427 6.9899305-.1352713-.5861755 33.1913683-6.9899304.135272z" fill="#000" transform="matrix(.98162718 -.190809 .190809 .98162718 -16.319145 8.148147)"/><path d="m50.7808512 50.0445817 6.9899305-.1352713-.6763563 38.2977332-6.9899304.1352713z" fill="#000" transform="matrix(.98162718 -.190809 .190809 .98162718 -12.198841 11.561822)"/><path d="m125.101229 106.094319-.623796 22.385695 57.945515-1.74885.623796-22.385696z" fill="#000" stroke="#fff" stroke-width="3" transform="matrix(.95105652 -.30901699 .30901699 .95105652 -28.447863 53.212744)"/><path d="m108.256016 126.256536-4.87251 21.753953 45.034138 10.662322 4.87251-21.753954zm154.631004 44.781205 18.113223-3.956841.041135.199072.157459-.242455 1.777539-.388304-1.072864-.696755.669653-1.031131-1.689195.369005-.293051-.190318.050285.24335-18.113223 3.956841-.041135-.199072-.157459.242454-1.777539.388305 1.072864.696755-.669653 1.031131 1.689195-.369005.293051.190318z" fill="#000" stroke="#fff" stroke-width="4"/><path d="m6.20487805 140.746835 33.35121955-23.746835h44.9853658l50.4146346 39.860759 24.043902 3.392406v19.506329l-102.3804878 4.240506-56.6195122-11.873418z" fill="#000"/><path d="m132.225992 114.849871 26.567602-.801835-.094333 3.385278-26.567603.801836z" fill="#fff" transform="matrix(.95105652 -.30901699 .30901699 .95105652 -28.770278 50.634798)"/><path d="m188.803412 83.8164425 1.223553 40.0697185 27.537426.906876-1.223553-40.0697188z" fill="#000" stroke="#fff" stroke-width="3" transform="matrix(.93969262 .34202014 -.34202014 .93969262 47.927811 -63.202641)"/><path d="m70.5850513 166.841288.3568762 17.245146 43.4429485.982386-.356876-17.245146z" fill="#000" stroke="#fff" stroke-width="4" transform="matrix(.97437006 .22495105 -.22495105 .97437006 41.951659 -16.294874)"/><path d="m75.7137329 169.933671 18.6671521.422125.0879427 4.249608-18.6671522-.422124z" fill="#fff" transform="matrix(.97437006 .22495105 -.22495105 .97437006 40.933098 -14.726116)"/><path d="m256.026623 161.394107-.350384 18.260968 48.293844-1.014044.350384-18.260967z" fill="#060901" stroke="#fff" stroke-width="3" transform="matrix(.9781476 -.20791169 .20791169 .9781476 -29.230004 61.930223)"/><path d="m217.84535 60.5378572c-.135352-.0040851-.270794-.0042417-.406155-.0004698-3.864494.1076873-6.909986 3.3277758-6.802299 7.1922689l1.596686 57.2990897c.103295 3.706855 3.079507 6.68996 6.786114 6.801829l37.457261 1.130495c.135352.004086.270795.004242.406156.00047 3.864493-.107687 6.909986-3.327776 6.802299-7.192269l-1.596687-57.2990893c-.103294-3.7068549-3.079507-6.6899601-6.786113-6.801829z" fill="#060901" stroke="#fff" stroke-width="4" transform="matrix(.95105652 .30901699 -.30901699 .95105652 41.504722 -68.551571)"/><path d="m215 80 50 17" stroke="#fff" stroke-width="3"/><path d="m258 54 17.772727-12 30.909091 12 17 17.1428571 2.318182 12.8571429-19.318182-12.8571429-28.590909 10.2857143z" fill="#060901"/><path d="m196.3125 40 34.6875-3.4117647c-6.166667-5.6862745-10.020833-8.5294118-11.5625-8.5294118-2.3125 0 6.9375-8.5294117 6.166667-12.7941176-.513889-2.8431373-2.3125-4.2647059-5.395834-4.2647059-3.083333 0-4.625 2.2745098-4.625 6.8235294 0 6.8235294-6.166666-5.117647-10.020833-3.4117647-3.854167 1.7058824 1.541667 11.9411765-.770833 12.7941177-2.3125.8529411-10.791667.8529411-10.791667 3.4117647 0 1.7058823.770833 4.8333333 2.3125 9.3823529z" fill="#000"/></g></svg>

<?xml version="1.0" encoding="UTF-8"?>
<svg width="383px" height="193px" viewBox="0 0 383 193" version="1.1" xmlns="http://www.w3.org/2000/svg" xmlns:xlink="http://www.w3.org/1999/xlink">
    <!-- Generator: Sketch 52.5 (67469) - http://www.bohemiancoding.com/sketch -->
    <title>Group</title>
    <desc>Created with Sketch.</desc>
    <g id="Page-1" stroke="none" stroke-width="1" fill="none" fill-rule="evenodd">
        <g id="Desktop-Copy-2" transform="translate(-69.000000, -614.000000)" fill-rule="nonzero">
            <g id="Group" transform="translate(69.000000, 614.000000)">
                <polygon id="Rectangle" fill="#000000" transform="translate(275.106821, 23.750558) rotate(53.000000) translate(-275.106821, -23.750558) " points="259.356222 21.4121617 290.703147 22.8777528 290.85742 26.0889552 259.510495 24.6233641"></polygon>
                <polygon id="Rectangle" fill="#000000" transform="translate(262.966324, 13.709194) rotate(-36.000000) translate(-262.966324, -13.709194) " points="247.509543 10.735127 278.766534 9.24693654 278.423105 16.6832618 247.166114 18.1714523"></polygon>
                <polygon id="Rectangle-Copy" fill="#000000" transform="translate(263.099661, 34.906885) rotate(53.000000) translate(-263.099661, -34.906885) " points="243.128046 30.3686459 282.724162 32.2199189 283.071276 39.4451242 243.475159 37.5938512"></polygon>
                <polygon id="Rectangle-Copy-2" fill="#000000" transform="translate(281.080704, 39.392461) rotate(-28.000000) translate(-281.080704, -39.392461) " points="265.797627 36.277758 296.663149 34.9804999 296.363782 42.5071642 265.49826 43.8044223"></polygon>
                <path d="M14.1111111,97.0212766 L60.7777778,80 L74.7777778,82.5531915 L81,98.7234043 L60.7777778,112.340426 C51.0415964,111.41833 44.3008557,111.41833 40.5555556,112.340426 C36.8102554,113.262521 33.1806258,115.815712 29.6666667,120 L4,120 L14.1111111,97.0212766 Z" id="Rectangle" fill="#000000"></path>
                <path d="M59.7539813,90.3637093 L101.408377,73.0258013 L151.958255,43.6097139 L210.187498,52.4944784 L251.719877,54.3379719 L275.432512,106.52353 C235.562426,121.516458 204.793616,129.818379 183.126084,131.429292 C161.458552,133.040206 132.269207,127.70888 95.5580497,115.435314 L82.8605855,97.0212912 L59.7539813,90.3637093 Z" id="Rectangle" fill="#060901" transform="translate(167.593246, 87.659680) rotate(-12.000000) translate(-167.593246, -87.659680) "></path>
                <polygon id="Rectangle" fill="#000000" transform="translate(352.965320, 95.574967) rotate(36.000000) translate(-352.965320, -95.574967) " points="335.974075 92.17395 363.156433 86.1473538 367.172098 91.6744434 372.073596 105.00258 333.857045 103.740074"></polygon>
                <polygon id="Rectangle" fill="#060901" points="237 105.478632 303.433862 73 338.195767 96.9316239 356.73545 111.461538 383 139.666667 371.412698 154.196581 340.513228 173 264.809524 161.888889"></polygon>
                <path d="M172.21118,114 C161.434092,117.414634 164.084196,119.121951 180.161491,119.121951 C196.238785,119.121951 214.78951,119.97561 235.813665,121.682927 L270,165.219512 L252.509317,171.195122 L189.701863,184 L158.695652,174.609756 L158.695652,157.536585 L142,157.536585 L172.21118,114 Z" id="Rectangle" fill="#060901"></path>
                <polygon id="Rectangle" fill="#000000" transform="translate(34.151296, 88.814476) rotate(-11.000000) translate(-34.151296, -88.814476) " points="30.9494183 72.286427 37.9393488 72.1511557 37.3531733 105.342524 30.3632429 105.477796"></polygon>
                <polygon id="Rectangle" fill="#000000" transform="translate(53.937638, 69.125813) rotate(-11.000000) translate(-53.937638, -69.125813) " points="50.7808512 50.0445817 57.7707817 49.9093104 57.0944254 88.2070436 50.104495 88.3423149"></polygon>
                <path d="M125.101229,106.094319 L124.477433,128.480014 L182.422948,126.731164 L183.046744,104.345468 L125.101229,106.094319 Z" id="Rectangle" stroke="#FFFFFF" stroke-width="3" fill="#000000" transform="translate(153.762089, 116.412741) rotate(-18.000000) translate(-153.762089, -116.412741) "></path>
                <path d="M108.256016,126.256536 L103.383506,148.010489 L148.417644,158.672811 L153.290154,136.918857 L108.256016,126.256536 Z M262.88702,171.037741 L281.000243,167.0809 L281.041378,167.279972 L281.198837,167.037517 L282.976376,166.649213 L281.903512,165.952458 L282.573165,164.921327 L280.88397,165.290332 L280.590919,165.100014 L280.641204,165.343364 L262.527981,169.300205 L262.486846,169.101133 L262.329387,169.343587 L260.551848,169.731892 L261.624712,170.428647 L260.955059,171.459778 L262.644254,171.090773 L262.937305,171.281091 L262.88702,171.037741 Z" id="Rectangle-2" stroke="#FFFFFF" stroke-width="4" fill="#000000"></path>
                <polygon id="Rectangle-3" fill="#000000" points="6.20487805 140.746835 39.5560976 117 84.5414634 117 134.956098 156.860759 159 160.253165 159 179.759494 56.6195122 184 0 172.126582"></polygon>
                <polygon id="Rectangle" fill="#FFFFFF" transform="translate(145.462626, 116.141593) rotate(-18.000000) translate(-145.462626, -116.141593) " points="132.225992 114.849871 158.793594 114.048036 158.699261 117.433314 132.131658 118.23515"></polygon>
                <path d="M188.803412,83.8164425 L190.026965,123.886161 L217.564391,124.793037 L216.340838,84.7233182 L188.803412,83.8164425 Z" id="Rectangle" stroke="#FFFFFF" stroke-width="3" fill="#000000" transform="translate(203.183901, 104.304740) rotate(20.000000) translate(-203.183901, -104.304740) "></path>
                <path d="M70.5850513,166.841288 L70.9419275,184.086434 L114.384876,185.06882 L114.028,167.823674 L70.5850513,166.841288 Z" id="Rectangle" stroke="#FFFFFF" stroke-width="4" fill="#000000" transform="translate(92.484964, 175.955054) rotate(13.000000) translate(-92.484964, -175.955054) "></path>
                <polygon id="Rectangle" fill="#FFFFFF" transform="translate(85.091280, 172.269538) rotate(13.000000) translate(-85.091280, -172.269538) " points="75.7137329 169.933671 94.380885 170.355796 94.4688277 174.605404 75.8016755 174.18328"></polygon>
                <path d="M256.026623,161.394107 L255.676239,179.655075 L303.970083,178.641031 L304.320467,160.380064 L256.026623,161.394107 Z" id="Rectangle" stroke="#FFFFFF" stroke-width="3" fill="#060901" transform="translate(279.998353, 170.017569) rotate(-12.000000) translate(-279.998353, -170.017569) "></path>
                <path d="M217.84535,60.5378572 C217.709998,60.5337721 217.574556,60.5336155 217.439195,60.5373874 C213.574701,60.6450747 210.529209,63.8651632 210.636896,67.7296563 L212.233582,125.028746 C212.336877,128.735601 215.313089,131.718706 219.019696,131.830575 L256.476957,132.96107 C256.612309,132.965156 256.747752,132.965312 256.883113,132.96154 C260.747606,132.853853 263.793099,129.633764 263.685412,125.769271 L262.088725,68.4701817 C261.985431,64.7633268 259.009218,61.7802216 255.302612,61.6683527 L217.84535,60.5378572 Z" id="Rectangle" stroke="#FFFFFF" stroke-width="4" fill="#060901" transform="translate(237.161154, 96.749464) rotate(18.000000) translate(-237.161154, -96.749464) "></path>
                <path d="M215,80 L265,97" id="Path-9" stroke="#FFFFFF" stroke-width="3"></path>
                <polygon id="Rectangle" fill="#060901" points="258 54 275.772727 42 306.681818 54 323.681818 71.1428571 326 84 306.681818 71.1428571 278.090909 81.4285714"></polygon>
                <path d="M196.3125,40 L231,36.5882353 C224.833333,30.9019608 220.979167,28.0588235 219.4375,28.0588235 C217.125,28.0588235 226.375,19.5294118 225.604167,15.2647059 C225.090278,12.4215686 223.291667,11 220.208333,11 C217.125,11 215.583333,13.2745098 215.583333,17.8235294 C215.583333,24.6470588 209.416667,12.7058824 205.5625,14.4117647 C201.708333,16.1176471 207.104167,26.3529412 204.791667,27.2058824 C202.479167,28.0588235 194,28.0588235 194,30.6176471 C194,32.3235294 194.770833,35.4509804 196.3125,40 Z" id="Path-10" fill="#000000"></path>
            </g>
        </g>
    </g>
</svg>
